X: 496
T: This is not my own house
%R: hornpipe, strathspey
B: "Preston's Twenty Four Country Dances for the Year 1803", Tho. Preston, ed. p.208 #2
F: http://folkopedia.efdss.org/images/archive/0/02/20121211105513%21Preston_24_1803.PDF
F: http://folkopedia.efdss.org/wiki/File:Preston_24_1803.PDF
Z: 2011,2014 John Chambers <jc:trillian.mit.edu>
N: The 2nd strain has final repeat, but no initial repeat.
M: C
L: 1/16
K: D
G2 |\
FA3 Da3 {g}f4 e3d | (Bcd2) A3G B2E2 E3G | FA3 Da3 {g}f4 e3d | (Bcd2) {B}A3F A2D2D2 :|
G2 |\
(FGA2) D3A (FGA2) B3A | (FGA2) D3f e2E2E3A | (FGA2) D3A (FGA2) B3A | (Bcd2) (cde2) d2D2D2G2 |
(FGA2) D3A (FGA2) B3A | (FGA2) D3f e2E2E2g2 | af3ge3 fd3ec3 | d3B A3F A2D2D2 :|
% - - - - - - - - - - - - - - - - - - - - - - - - -
%%begintext align
%% 1st Gentn lead the 2d Lady down the middle,
%% then to her own place, the 1st Lady do
%% the same with the 2d Gentn 1st Gentn lead
%% his partner down the middle & Poussette.
%%endtext

%%sep 1 1 500
%%sep 1 1 500
